brandFactory_export/2.Regular/Datos compartidos_2Regular.svg

<?xml version="1.0" encoding="UTF-8"?>
<svg width="24px" height="24px" viewBox="0 0 24 24" version="1.1" xmlns="http://www.w3.org/2000/svg" xmlns:xlink="http://www.w3.org/1999/xlink">
    <title>2.Regular/Datos compartidos_2Regular</title>
    <g id="Symbols" stroke="none" stroke-width="1" fill="none" fill-rule="evenodd">
        <g id="2.Regular/Datos-compartidos_2Regular" fill="#5CB615" fill-rule="nonzero">
            <path d="M22.9176471,18.7445378 C23.287395,18.7445378 23.589916,19.0470588 23.589916,19.4168067 C23.589916,19.7865546 23.287395,20.0890756 22.9176471,20.0890756 L0.712605042,20.0890756 C0.342857142,20.0890756 0.0403361341,19.7865546 0.0403361341,19.4168067 C0.0403361341,19.0470588 0.342857142,18.7445378 0.712605042,18.7445378 L22.9176471,18.7445378 Z M19.6806723,3.01008403 C20.9983193,3.01008403 22.010084,3.40336134 22.6857143,4.17647059 C23.3142857,4.89579832 23.6302521,5.93781513 23.6302521,7.27563025 L23.6302521,13.2016807 C23.6302521,14.5394958 23.3109244,15.5815126 22.6857143,16.3008403 C22.010084,17.0739496 20.9983193,17.4672269 19.6806723,17.4672269 L3.94957983,17.4672269 C2.63193277,17.4672269 1.62016807,17.0739496 0.944537815,16.3042017 C0.319327731,15.5815126 -3.60959262e-10,14.5394958 -3.60959262e-10,13.2016807 L-3.60959262e-10,7.27563025 C-3.60959262e-10,5.93781513 0.319327731,4.89579832 0.944537815,4.17647059 C1.62016807,3.40336134 2.62857143,3.01008403 3.94957983,3.01008403 L19.6806723,3.01008403 Z M19.6806723,4.35462185 L3.94957983,4.35798319 C3.02184874,4.35798319 2.37310924,4.58991597 1.95966387,5.06386555 C1.55294118,5.52773109 1.34453781,6.27394958 1.34453781,7.27563025 L1.34453781,13.2016807 C1.34453781,14.2033613 1.55294118,14.9495798 1.95966387,15.4168067 C2.37310924,15.8907563 3.02521008,16.1226891 3.94957983,16.1226891 L19.6806723,16.1226891 C20.605042,16.1226891 21.2571429,15.8907563 21.6705882,15.4168067 C22.0773109,14.9495798 22.2857143,14.2033613 22.2857143,13.2016807 L22.2857143,7.27563025 C22.2857143,6.27394958 22.0773109,5.52773109 21.6705882,5.0605042 C21.2571429,4.58655462 20.605042,4.35462185 19.6806723,4.35462185 Z M14.4605042,5.91764706 C14.9647059,5.91764706 15.3613445,6.05546218 15.6537815,6.33109244 C15.9596639,6.62016807 16.1142857,7.04033613 16.1142857,7.57815126 C16.1142857,8.09243697 15.9697479,8.50252101 15.687395,8.78823529 C15.405042,9.07394958 14.9747899,9.23529412 14.4571429,9.23529412 C13.9394958,9.23529412 13.5159664,9.08067227 13.2302521,8.78823529 L13.185,8.73608403 L10.8096773,9.92235431 C10.8211449,10.0171895 10.8268908,10.1164929 10.8268908,10.2201681 C10.8268908,10.323679 10.8210355,10.4229686 10.8093798,10.5178727 L13.1844734,11.7040441 C13.2107021,11.6743594 13.2382875,11.6458367 13.2672269,11.6184874 C13.5563025,11.3462185 13.9563025,11.205042 14.4605042,11.205042 C14.9647059,11.205042 15.3647059,11.3428571 15.6537815,11.6184874 C15.9596639,11.907563 16.1142857,12.3277311 16.1142857,12.8655462 C16.1142857,13.3798319 15.9697479,13.789916 15.687395,14.0756303 C15.405042,14.3613445 14.9747899,14.5226891 14.4571429,14.5226891 C13.9394958,14.5226891 13.5159664,14.3680672 13.2302521,14.0756303 C12.9445378,13.7831933 12.8067227,13.3798319 12.8067227,12.8655462 C12.8067227,12.7917496 12.8096339,12.7201681 12.8154477,12.6508364 L10.391,11.438084 L10.2873096,11.5314929 C10.008771,11.7537815 9.62310924,11.8773109 9.17310924,11.8773109 C8.65546218,11.8773109 8.23193277,11.7226891 7.94621849,11.4302521 C7.6605042,11.1378151 7.51932773,10.7344538 7.51932773,10.2201681 C7.51932773,9.68235294 7.67394958,9.26218487 7.97983193,8.97310924 C8.26890756,8.70084034 8.66890756,8.55966387 9.17310924,8.55966387 C9.67731092,8.55966387 10.0773109,8.69747899 10.3663866,8.97310924 L10.394,9.00308403 L12.8153341,7.79352041 C12.8095831,7.72403299 12.8067227,7.65224327 12.8067227,7.57815126 C12.8067227,7.04033613 12.9613445,6.62016807 13.2672269,6.33109244 C13.5563025,6.05882353 13.9563025,5.91764706 14.4605042,5.91764706 Z" id="Datos-compartidos_2Regular"></path>
        </g>
    </g>
</svg>

<svg width="24" height="24" viewBox="0 0 24 24" xmlns="http://www.w3.org/2000/svg"><path d="M22.918 18.745c.37 0 .672.302.672.672 0 .37-.303.672-.672.672H.713a.674.674 0 01-.673-.672c0-.37.303-.672.673-.672h22.205zM19.68 3.01c1.317 0 2.33.393 3.005 1.166.628.72.944 1.762.944 3.1v5.926c0 1.337-.32 2.38-.944 3.099-.676.773-1.688 1.166-3.005 1.166H3.95c-1.318 0-2.33-.393-3.005-1.163C.319 15.582 0 14.54 0 13.202V7.276c0-1.338.32-2.38.945-3.1C1.62 3.403 2.629 3.01 3.95 3.01h15.73zm0 1.345L3.95 4.358c-.928 0-1.577.232-1.99.706-.407.464-.615 1.21-.615 2.212v5.926c0 1.001.208 1.748.615 2.215.413.474 1.065.706 1.99.706h15.73c.925 0 1.577-.232 1.99-.706.407-.467.616-1.214.616-2.215V7.276c0-1.002-.209-1.748-.615-2.215-.414-.474-1.066-.706-1.99-.706zm-5.22 1.563c.504 0 .9.137 1.193.413.306.29.46.71.46 1.247 0 .514-.144.925-.427 1.21-.282.286-.712.447-1.23.447s-.941-.154-1.227-.447l-.045-.052-2.375 1.186a2.482 2.482 0 010 .596l2.374 1.186c.027-.03.054-.058.083-.086.29-.272.69-.413 1.194-.413s.904.138 1.193.413c.306.29.46.71.46 1.248 0 .514-.144.924-.427 1.21-.282.285-.712.447-1.23.447s-.941-.155-1.227-.447c-.285-.293-.423-.696-.423-1.21 0-.074.003-.146.008-.215l-2.424-1.213-.104.093c-.278.223-.664.346-1.114.346-.518 0-.941-.154-1.227-.447-.285-.292-.427-.696-.427-1.21 0-.538.155-.958.46-1.247.29-.272.69-.413 1.194-.413s.904.137 1.193.413l.028.03 2.421-1.21a2.612 2.612 0 01-.008-.215c0-.538.154-.958.46-1.247.29-.272.69-.413 1.194-.413z" fill="#5CB615" fill-rule="nonzero"/></svg>
